X:6
T:Over the Waterfall
M:4/4
R:reel
Q:1/2=120
L:1/8
K:D
de|"D"f2a2 gfe2|"G"d2B2"A"A2de|"D"f2a2 gfe2|"D"f6de|
"D"f2a2 gfe2|"G"d2B2"A"A2AB|"C"=c2 c2B2G2|"D"A4A2:|
|:FG|"D"A2A2 "G"B2B2|"D"ABAG F2FG|"D"A2d2 "A"c2e2|"D"d4 d2FG|
"D"A2A2 "G"B2B2|"D"ABAG F2FG|"D"A2D2 "A"F2E2|"D"D4 D2:|
%%newpage
